X: 92
T: Strayaway Child v.2
P: piffero secondo a0734
O: Dan Moylan
%R: jig
F: http://ancients.sudburymuster.org/mus/sng/pdf/strayawayC0.pdf
Z: 2020 John Chambers <jc:trillian.mit.edu>
M: 6/8
L: 1/8
K: Am
B |:\
EAc c3 | c2A E2D | EAc c3 | G2G B3 |\
EAc c3 | c2A E2D | EAc c3 | AAB c3 :|
|:\
A2c c3 | c2A BAB | A2c c3 | cAc B3 |\
A2c c3 | c2A BAB | A2c c2B |1 AAB c3 :|2 AAB c2 |]


